X: 825
T: Geveşt Sazsemâîsi
C: ?
O: Turkey
F: http://compmusic.upf.edu/node/140
N: gevest--sazsemaisi--aksaksemai----
N: makam= gevest
N: form= sazsemaisi
N: usul= aksaksemai = 10/8
M: 10/8
L: 1/16
K: C    
Q: 1/4=126
%%MIDI tuningsystem comma53
A4 G2^9/8F2 E2F2 G2F2 E2D2  | ^9/8FGF2 E2FG F2GA G2A4z2  | 
w:  1. HANE  |   | 
A4 G2AB A2Bc B2cd c2B2  | c4 B2c2 d2dc BcB4A2  | 
w:   |   | 
GAG2 ^9/8F2G4A2 GFG4A2  | GAG2 A2B2 c2cd cBA4B2  | 
w:   |   | 
cdc2 B2A2 G2^9/8F2 G2A4z2  | E4 E2^9/8F2 G2G2 FEF4z2  | \
w:   |   | 
c4 d2c2 B2d2 c2Bc B2c2  | 
w:   | 
A4 _B2A2 GAG2 ^9/8F2E4z2  | ^9/8F4 G2A4_B2 A2G4A2  | \
w:   |  TESLİM  | 
BcB2 c2B2 A2_B2 A2G4z2  | 
w:   | 
GAG2 A2G2 ^9/8F2F2 E2F4z2  | ^9/8F4 G2A4_B2 A2G4A2  | \
w:   |  TESLİM  | 
BcB2 c2B2 A2_B2 A2G4z2  | 
w:   | 
GAG2 A2G2 ^9/8F2F2 E2F4z2  | GAG2 ^9/8F2E4F2 G2A4G2  | \
w:   |  2. HANE  | 
A4 c2B2 cdc2 d2dc B2c2  | 
w:   | 
A4 e2d2 B2cd cBA4G2  | ^9/8F4 E2F4G2 A2G4z2  | \
w:   |   | 
c4 d2c2 B2A2 _B2BA G2A2  | 
w:   | 
G2^9/8F2 E2F2 G2F2 E2F4z2  | GAG2 ^9/8F2E4F2 G2A4G2  | \
w:   |   | 
A4 c2B2 cdc2 d2dc B2c2  | 
w:   | 
A4 e2d2 B2cd cBA4G2  | ^9/8F4 E2F4G2 A2G4z2  | \
w:   |   | 
c4 d2c2 B2A2 _B2BA G2A2  | 
w:   | 
G2^9/8F2 E2F2 G2F2 E2F4z2  | A4 ^9/8F2G2 A2GF E2F4G2  | \
w:   |   | 
A4 AAA4BA B2G4z2  | 
w:   | 
c4 d2c2 B2A2 G2AB A2B2  | c4 _3/4d2de dccd c_1/4BA4z2  | 
w:   |   | 
_1/4BcB2 c2c_3/4d cBBc BAG4z2  | A4 AAAB A2G2 ^9/8F2E4z2  | 
w:   |   | 
A4 ^9/8F2G2 A2GF E2F4G2  | A4 AAA4BA B2G4z2  | \
w:   |   | 
c4 d2c2 B2A2 G2AB A2B2  | 
w:   | 
c4 _3/4d2de dccd c_1/4BA4z2  | _1/4BcB2 c2c_3/4d cBBc BAG4z2  | 
w:   |   | 
A4 AAAB A2G2 ^9/8F2E4z2  | ^9/8F4 G2A4_B2 A2G4A2  | \
w:   |  TESLİM  | 
BcB2 c2B2 A2_B2 A2G4z2  | 
w:   | 
GAG2 A2G2 ^9/8F2F2 E2F4z2  | ^9/8F4 G2A4_B2 A2G4A2  | \
w:   |  TESLİM  | 
BcB2 c2B2 A2_B2 A2G4z2  | 
w:   | 
GAG2 A2G2 ^9/8F2F2 E2F4z2  | |


